X: 351
T: Da mafang
%%abc-version 2.0
%%abcx-abcm2ps-target-version 5.9.1 (29 Sep 2008)
%%abc-creator hum2abc beta
%%abcx-conversion-date 2013/10/02 07:52:30
%%abc-edited-by Helmut Schaffrath
%%humdrum-veritas 3127814913
%%humdrum-veritas-data 180862123
%%continueall 1
%%barnumbers 0
L: 1/8
M: 2/4
K: F
d d/ c/ d c [I:setbarnb 1]| 
d d/ f/c2 | 
d d/ f/ c d/ c/ | 
B A/ c/G2 | 
c> G c c | 
G> A G F | 
E G D F | 
C2F G | 
E DC2 |]  



